svg/fluentui-system-icons/ic_fluent_remote_20_filled.svg

<svg width="20" height="20" viewBox="0 0 20 20" fill="none" xmlns="http://www.w3.org/2000/svg">
<path d="M16.9697 15.0303C17.2626 15.3232 17.7374 15.3232 18.0303 15.0303C18.3232 14.7374 18.3232 14.2626 18.0303 13.9697L12.5607 8.5L18.0303 3.03033C18.3232 2.73744 18.3232 2.26256 18.0303 1.96967C17.7374 1.67678 17.2626 1.67678 16.9697 1.96967L10.9697 7.96967C10.6768 8.26256 10.6768 8.73744 10.9697 9.03033L16.9697 15.0303ZM3.03033 4.96967C2.73744 4.67678 2.26256 4.67678 1.96967 4.96967C1.67678 5.26256 1.67678 5.73744 1.96967 6.03033L7.43934 11.5L1.96967 16.9697C1.67678 17.2626 1.67678 17.7374 1.96967 18.0303C2.26256 18.3232 2.73744 18.3232 3.03033 18.0303L9.03033 12.0303C9.32322 11.7374 9.32322 11.2626 9.03033 10.9697L3.03033 4.96967Z" fill="#212121"/>
</svg>

<svg xmlns="http://www.w3.org/2000/svg" width="20" height="20"><path d="M16.97 15.03a.75.75 0 1 0 1.06-1.06L12.56 8.5l5.47-5.47a.75.75 0 0 0-1.06-1.06l-6 6a.75.75 0 0 0 0 1.06l6 6ZM3.03 4.97a.75.75 0 0 0-1.06 1.06l5.47 5.47-5.47 5.47a.75.75 0 1 0 1.06 1.06l6-6a.75.75 0 0 0 0-1.06l-6-6Z"/></svg>
